!!!!SEGMENT: pl-wtm--iii-41-976--002_kurpinski-karol-kazimierz--wesele-w-ojcowie-introdukcya.krn
!!!cenid: 18xx:4254
!!!COM: Kurpiński, Karol Kazimierz
!!!COM-rismID: pe30018952
!!!CDT: 1785/03/06-1857/09/18
!!!CNT: Polish
!!!GTL: Wesele w Ojcowie
!!!OTL: Introdukcya
!!!OMV: 002
!!!PDT:
!!!AGN:
!!!SMS-siglum: PL-Wtm
!!!SMS-shelfmark: III.41.976
!!!SMS-shelfwork: 001-002 G
!!!SMS-variant:
!!!SMS-altvar:
!!!NIFC-rismSourceID: 1001130735
!!!NIFC-rismChildID: 1001130735
!!!NIFC-islandoraID: pl-wtm:23143
!!!URL-pdf-islandora: https://repozytorium.nifc.pl/islandora/object/pl-wtm:23143/datastream/PDF/view
!!!URL-scan: https://polish.musicsources.pl/pl/lokalizacje/galeria/druki-muzyczne/17811/4 @EN{Scan on Polish Music Sources Website} @PL{Skany w portalu Dziedzictwo Muzyki Polskiej w otwartym dostępie}
!!!ONB-nifc: UWAGA: skan 4
!!!OMD: Moderato
!!!AIN: 2 piano
!!!key: D
**kern	**kern	**dynam
*part2	*part1	*part1
*staff2	*staff1	*
*I"[FORTEPIAN]	*I"[FORTEPIAN]	*
*I'	*I'	*
*Ipiano	*Ipiano	*
*ICklav	*ICklav	*
*clefF4	*clefG2	*
*k[f#c#]	*k[f#c#]	*
*D:	*D:	*
*M4/4	*M4/4	*
*met(c)	*met(c)	*
!	!	!LO:DY:b:rj
16d 16D\	16ddd 16aa 16ff# 16dd\	ff
=1	=1	=1
2d 2D\	2ddd 2aa 2ff# 2dd\	.
(8.A\L	(8.aaL 8.a\	.
16F#\K	16ff#K 16f#\	.
8.G\	8.gg 8.g\	.
16A\Jk)	16aaJk 16a\)	.
=2	=2	=2
4B^\	4bb 4b^\	.
4G^\	4gg 4g^\	.
4E^\	4.ee 4.e^\	.
4r	.	.
.	16ff#\LL	.
.	16gg\JJ	f
=3	=3	=3
8d 8A 8F#'\	(8.aa\L	.
8r	.	.
.	16gg\Jk	.
8e 8B 8G'\	8.ggT\L	.
8r	.	.
.	32ff#\LL	.
.	32gg\JJJ	.
8f# 8d 8A'\	8.ff#\L	.
8r	.	.
.	16ee\Jk	.
8g 8c# 8A'\	8.eeT\L	.
8r	.	.
.	32dd\LL	.
.	32ee\JJJ)	.
!!LO:LB:g=original
=4	=4	=4
8D\L	4dd\	.
8f# 8d 8A\	.	.
8f# 8d 8A\	4r	.
8f#J 8d 8A\	.	.
8f#L 8d 8A\	8.r	p
8f# 8d 8A\	.	.
.	16ff#\	.
8f# 8d 8A\	8.ff#t\L	.
8f#J 8d 8A\	.	.
.	32ee\LL	.
.	32ff#\JJJ	.
=5	=5	=5
8D\L	4dd\	.
8f# 8d 8A\	.	.
8f# 8d 8A\	4r	.
8f#J 8d 8A\	.	.
8f#L 8d 8A\	8.r	.
8f# 8d 8A\	.	.
.	16ff#\	.
8f# 8d 8A\	8.ff#t\L	.
8f#J 8d 8A\	.	.
.	32ee\LL	.
.	32ff#\JJJ	.
=6	=6	=6
8D\L	4dd\	.
8f# 8d 8A\	.	.
8f# 8d 8A\	4r	.
8f#J 8d 8A\	.	.
8f#L 8d 8A\	8r	.
8f# 8d 8A\	(8dd\L	.
8f# 8d 8A\	8ff#\	.
8f#J 8d 8A\	8gg#X\J	.
=7	=7	=7
8D\L	8aa\L	.
8f# 8d 8A\	8bb\	.
8f# 8d 8A\	8aa\	.
8f#J 8d 8A\	8gg#X\J	.
8f#L 8d 8A\	8aa\L	.
8f# 8d 8A\	8bb\	.
8f# 8d 8A\	8aa\	.
8f#J 8d 8A\	8ff#\J)	.
!!LO:LB:g=original
=8	=8	=8
.	(<8qbb/	.
8D\L	(8aa\L)	.
8f# 8d 8A\	8ff#\	.
8f# 8d 8A\	8aa\	.
8f#J 8d 8A\	8ff#\J	.
8f#L 8d 8A\	8dd\L	.
8f# 8d 8A\	8ff#\J	.
.	8qgg/	.
8f# 8d 8A\	16ff#\LL	.
.	16ee\J	.
8f#J 8d 8A\	8dd\J)	.
=9	=9	=9
!	!	!LO:DY:b:rj
2A 2AA\	2aa 2ee 2cc# 2a\	ff
(8.eL 8.E\	(8.ee\L	.
16c#K 16C#\	16cc#\K	.
8.d 8.D\	8.dd\	.
16eJk 16E\)	16ee\Jk)	.
=10	=10	=10
4f# 4F#^\	4ff#^\	.
4d 4D^\	4dd^\	.
4B 4BB^\	4.b^\	.
4r	.	.
.	(16cc#\LL	.
.	16dd\JJ)	.
=11	=11	=11
8A 8E 8C#'\	(8.ee\L	f
8r	.	.
.	16dd\Jk	.
8B 8F# 8D'\	8.ddT\L	.
8r	.	.
.	32cc#\LL	.
.	32dd\JJJ	.
8c# 8A 8E'\	8.cc#\L	.
8r	.	.
.	16b\Jk	.
8d 8G#X 8E'\	8.bT\L	.
8r	.	.
.	32a\LL	.
.	32b\JJJ)	.
!!LO:LB:g=original
=12	=12	=12
8AA\L	4a/	.
8e 8c# 8A\	.	.
8e 8c# 8A\	4r	.
8eJ 8c# 8A\	.	.
8eL 8c# 8A\	8.r	.
8e 8c# 8A\	.	.
.	16ee\	p
8e 8c# 8A\	(16ff#\LL	.
.	16ee\	.
8eJ 8c# 8A\	16dd#X\	.
.	16ee\JJ)	.
=13	=13	=13
8eL 8c# 8A\	8.ee\L	.
8e 8c# 8A\	.	.
.	16cc#\Jk	.
8e 8c# 8A\	4a/	.
8eJ 8c# 8A\	.	.
8eL 8c# 8A\	8.r	.
8e 8c# 8A\	.	.
.	16ee\	.
8e 8c# 8A\	(16ff#\LL	.
.	16ee\	.
8eJ 8c# 8A\	16dd#X\	.
.	16ee\JJ)	.
=14	=14	=14
8eL 8c# 8A\	8.ee\L	.
8e 8c# 8A\	.	.
.	16cc#\Jk	.
8e 8c# 8A\	4a\	.
8eJ 8c# 8A\	.	.
8eL 8c# 8A\	8r	.
8e 8c# 8A\	8a\L	.
8e 8c# 8A\	(8cc#\	.
8eJ 8c# 8A\	8dd#X\J	.
=15	=15	=15
8AA\L	8ee\L	.
8e 8c# 8A\	8ff#\	.
8e 8c# 8A\	8ee\	.
8eJ 8c# 8A\	8dd#X\J	.
8eL 8c# 8A\	8ee\L	.
8e 8c# 8A\	8ff#\	.
8e 8c# 8A\	8gg\	.
8eJ 8c# 8A\	8gg#X\J)	.
!!LO:LB:g=original
=16	=16	=16
8eL 8c# 8A\	8aa\L	.
8e 8c# 8A\	8gg#X\	.
.	8qbb/	.
8e 8c# 8A\	8aa\	.
8eJ 8c# 8A\	8gg#\J	.
*	*Xtuplet	*
4g 4c# 4A\	(12aa\L	.
.	12bb\	.
.	12ggn\J	.
4g 4c# 4A\	12ff#\L	.
.	12gg\	.
.	12ee\J)	.
=17	=17	=17
4f# 4d\	(4dd`\	.
4r	12dd\L	.
.	12ff#\	.
.	12ee\J	.
4G 4E 4AA\	12dd\L	.
.	12cc#\	.
.	12b\J	.
4G 4E 4AA\	12a\L	.
.	12b\	.
.	12cc#\J	.
=18	=18	=18
4F# 4D\	12dd\L	.
.	12ee\	.
.	12ffn\J	.
4r	12ff#X\L	.
.	12gg\	.
.	12gg#X\J	.
[4g 4c# 4A\	12aa\L	.
.	12bb\	.
.	12aa\J	.
4g] 4c# 4A\	12ee\L	.
.	12ggn\	.
.	12ff#\J)	.
=19	=19	=19
4f# 4d\	(4dd`\	.
4r	12dd\L	.
.	12ff#\	.
.	12ee\J	.
4F# 4D 4AA\	12dd\L	.
.	12cc#\	.
.	12b\J	.
4G 4E 4AA\	12cc#\L	.
.	12b\	.
.	12a\J	.
!!LO:LB:g=original
=20	=20	=20
4F# 4D\	12dd\L	.
.	12cc#\	.
.	12dd\J	.
4r	12ff#\L	.
.	12bb\	.
.	12aa\J	.
4g 4c# 4A\	12gg#X\L	.
.	12aa\	.
.	12ggn\J	.
4g 4c# 4A\	12ee\L	.
.	12gg\	.
.	12ff#\J)	.
=21	=21	=21
4f# 4d\	(12dd\L	.
.	12cc#\	.
.	12dd\J	.
4r	12ff#\L	.
.	12ee\	.
.	12dd\J	.
4f# 4d\	12dd\L	.
.	12cc#\	.
.	12dd\J	.
4r	12ff#\L	.
.	12ee\	.
.	12dd\J	.
=22	=22	=22
4f# 4d 4A\	12dd\L	.
!	!LO:TX:b:i:t=rit. e	!
.	12cc#\	.
.	12dd\J	.
!	!	!LO:HP:b:t=dim
4r	12ff#\L	>
.	12ee\	.
.	12dd\J	.
4fn 4d 4A\	12dd\L	.
.	12cc#\	.
.	12dd\J	.
4r	12ffn\L	.
.	12ee\	.
.	12dd\J)	.
=23	=23	=23
.	8qa/	.
4A\	(4aa`\	.
4e 4c#\	12aa\L	.
.	12ccc#\	.
.	12bb\J	.
4E\	12aa\L	.
.	12gg#X\	.
.	12ff#\J	.
4d 4B\	12ee\L	.
.	12ff#\	.
.	12gg#\J	.
!!LO:PB:g=original
=24	=24	=24
4A\	12aa\L	.
.	12gg#X\	.
.	12aa\J	.
4e 4c#\	12ccc#\L	.
.	12bb\	.
.	12ccc#\J	.
4G#X\	12eee\L	.
.	12ddd#X\	.
.	12eee\J	.
4e 4d\	12bb\L	.
.	12dddn\	.
.	12ccc#\J)	.
=25	=25	=25
4A\	4aa`\	.
4e 4c#\	(12aa\L	.
.	12ccc#\	.
.	12bb\J	.
4E\	12aa\L	.
.	12gg#X\	.
.	12ff#\J	.
4d 4B\	12ee\L	.
.	12ff#\	.
.	12gg#\J	.
=26	=26	=26
4A\	12aa\L	.
.	12gg#X\	.
.	12aa\J	.
4e 4c#\	12ccc#\L	.
.	12bb\	.
.	12ccc#\J	.
4G#X\	12eee\L	.
.	12ddd#X\	.
.	12eee\J	.
4e 4d\	12bb\L	.
.	12dddn\	.
.	12ccc#\J)	.
=27	=27	=27
4A\	(12aa\L	.
.	12gg#X\	.
.	12aa\J	.
4e 4c#\	12ccc#\L	.
.	12bb\	.
.	12aa\J	.
4C#\	12ggn\L	.
.	12ff#\	.
.	12gg\J	.
4A 4G\	12bb\L	.
.	12aa\	.
.	12gg\J	.
=28	=28	=28
4D\	12ff#\L	.
.	12ee\	.
.	12ff#\J	.
4A 4F#\	12aa\L	.
.	12gg\	.
.	12ff#\J	.
4G\	12ee\L	.
.	12dd\	.
.	12ee\J	.
4e 4B\	12gg\L	.
.	12ff#\	.
.	12ee\J)	.
!!LO:LB:g=original
=29	=29	=29
4f# 4d 4A\	4dd`\	.
4r	(12dd\L	.
.	12ff#\	.
.	12ee\J	.
4G 4E 4AA\	12dd\L	.
.	12cc#\	.
.	12b\J	.
4G 4E 4AA\	12a\L	.
.	12b\	.
.	12cc#\J	.
=30	=30	=30
4F# 4D\	12dd\L	.
.	12ee\	.
.	12ffn\J	.
4r	12ff#X\L	.
.	12gg\	.
.	12gg#X\J	.
4g 4c# 4A\	12aa\L	.
.	12bb\	.
.	12aa\J	.
4g 4c# 4A\	12ee\L	.
.	12ggn\	.
.	12ff#\J)	.
=31	=31	=31
4f# 4d\	4dd`\	.
4r	(12dd\L	.
.	12ff#\	.
.	12ee\J	.
4F# 4D 4AA\	12dd\L	.
.	12cc#\	.
.	12b\J	.
4G 4E 4AA\	12cc#\L	.
.	12b\	.
.	12a\J	.
=32	=32	=32
4F# 4D\	12dd\L	.
.	12cc#\	.
.	12dd\J	.
4r	12ff#\L	.
.	12bb\	.
.	12aa\J	.
4g 4c# 4A\	12ee\L	.
.	12ff#\	.
.	12gg\J	.
4g 4e 4A\	12aa\L	.
.	12bb\	.
.	12ccc#\J)	.
=33	=33	=33
2f# 2d\	2ddd 2aa 2ff# 2dd\	ff
(8.A\L	(8.aaL 8.a\	.
16F#\K	16ff#K 16f#\	.
8.G\	8.gg 8.g\	.
16A\Jk)	16aaJk 16a\)	.
!!LO:LB:g=original
=34	=34	=34
4B^\	4bb 4b^\	.
4G^\	4gg 4g^\	.
4E^\	4.ee 4.e^\	.
4r	.	.
.	(16ff#\LL	.
.	16gg\JJ)	.
=35	=35	=35
8F# 8FF#\	8aaL 8ff# 8a\	.
8r	8aaJ 8ff# 8a\	.
8G 8GG\	8ggL 8ee 8b\	.
8r	8ggJ 8ee 8b\	.
8A 8AA\	8ff#L 8dd 8a\	.
8r	8ff#J 8dd 8a\	.
8AA 8AAA/	8eeL 8cc# 8a 8g\	.
8r	8eeJ 8cc# 8a 8g\	.
!	!LO:TX:a:t=[segno]	!
=36	=36	=36
!	!	!LO:DY:b:rj
8DL 8DD\	4dd 4a 4f# 4d\	f
8d 8A 8F#\	.	.
8d 8A 8F#\	4r	.
8dJ 8A 8F#\	.	.
8dL 8A 8F#\	8r	.
8d 8A 8F#\	(16dd\LL	.
.	16ee\JJ	.
8d 8A 8F#\	16ff#\LL	.
.	16ee\	.
8dJ 8A 8F#\	16dd\	.
.	16cc#\JJ)	.
=37	=37	=37
8D\L	8dd\L	.
8d 8A 8F#\	8a\J	.
8d 8A 8F#\	4r	.
8dJ 8A 8F#\	.	.
8dL 8A 8F#\	8r	.
8d 8A 8F#\	(16dd\LL	.
.	16ee\JJ	.
8d 8A 8F#\	16ff#\LL	.
.	16ee\	.
8dJ 8A 8F#\	16dd\	.
.	16cc#\JJ)	.
=38	=38	=38
8D\L	4b\	.
8d 8B 8G\	.	.
8d 8B 8G\	4r	.
8dJ 8B 8G\	.	.
8dL 8B 8G\	8r	.
8d 8B 8G\	(16dd\LL	.
.	16cc#\JJ	.
8d 8B 8G\	16dd\LL	.
.	16cc#\	.
8dJ 8B 8G\	16dd\	.
.	16b\JJ)	.
!!LO:LB:g=original
=39	=39	=39
8AA\L	4a/	.
8c# 8A 8G\	.	.
8c# 8A 8G\	4r	.
8c#J 8A 8G\	.	.
8c#L 8A 8G\	8r	.
8c# 8A 8G\	(16ee\LL	.
.	16dd\JJ	.
8c# 8A 8G\	16cc#\LL	.
.	16b\	.
8c#J 8A 8G\	16a\	.
.	16g\JJ)	.
=40	=40	=40
8D\L	4f#/	.
8d 8A 8F#\	.	.
8d 8A 8F#\	4r	.
8dJ 8A 8F#\	.	.
8dL 8A 8F#\	8r	.
8d 8A 8F#\	(16dd\LL	.
.	16cc#\JJ	.
8d 8A 8F#\	16dd\LL	.
.	16cc#\	.
8dJ 8A 8F#\	16b\	.
.	16a\JJ)	.
=41	=41	=41
8E\L	4g#X/	.
8d 8B 8G#X\	.	.
8d 8B 8G#\	4r	.
8dJ 8B 8G#\	.	.
8dL 8B 8G#\	8r	.
8d 8B 8G#\	(16ee\LL	.
.	16dd#X\JJ	.
8d 8B 8G#\	16ee\LL	.
.	16ddn\	.
8dJ 8B 8G#\	16cc#\	.
.	16b\JJ)	.
=42	=42	=42
4c# 4A\	4a/	.
4r	8r	.
.	16a/LL	.
.	16a/JJ	.
!	!	!LO:DY:b:rj
8BL 8F# 8BB'\	8dd#XL 8a'\	f
8BJ 8F# 8BB'\	8dd#J 8a'\	.
8r	8r	.
8B 8F# 8BB\	16dd#LL 16a\	.
.	16dd#JJ 16a\	.
=43	=43	=43
4B 4E\	8ee'L 8g#X'\	.
.	8ee'J 8g#'\	.
4r	8r	.
.	16ee\LL	rfz
.	16ee\JJ	.
2BB 2BBB/	4aa 4dd#X 4a^\	.
.	8r	.
.	(16aa\LL	.
.	16dd#JJ 16a\)	.
!!LO:LB:g=original
=44	=44	=44
8E 8EE\	4ee 4g#X\	.
8r	.	.
8BB 8BBB/	8r	.
8r	(16aa\LL	.
.	16dd#XJJ 16a\)	.
8E 8EE\	4ee 4g#\	.
8r	.	.
8BB 8BBB/	8r	.
8r	(16aa\LL	.
.	16dd#JJ 16a\)	.
=45	=45	=45
4E 4EE/	8ee 8g#X\	.
.	8r	.
8cc#>'\L	8ee'>/L	pp
8cc#>'\J	8ee'>/J	.
8dd>'\L	8ff#'>/L	.
8dd>'\J	8ff#'>/J	.
(16dd>\LL	(16ff#/LL	.
16cc#>\	16ee/	.
16b>\	16dd/	.
16a>\JJ)	16cc#/JJ)	.
=46	=46	=46
(8a>\L	(8cc#/L	.
16g#X>\Jk)	16b/Jk)	.
16re>	16rff	.
8cc#>'\L	8ee'/L	.
8cc#>'\J	8ee'/J	.
8dd>'\L	8ff#/L	.
8dd>'\J	8ff#'/J	.
(16dd>\LL	(16ff#/LL	.
16cc#>\	16ee/	.
16b>\	16dd/	.
16a>\JJ)	16cc#/JJ)	.
=47	=47	=47
4e>\	4b/	.
8r	8r	.
16c#'\LL	16ee'\LL	.
16c#'\JJ	16ee'\JJ	.
8B'\L	8dd'\L	.
8B'\J	8dd'\J	.
8r	8r	.
16B'\LL	16dd'\LL	.
16B'\JJ	16dd'\JJ	.
=48	=48	=48
4A^\	4cc#^\	.
8r	8r	.
16A'\LL	16cc#'\LL	.
16A'\JJ	16cc#'\JJ	.
4E^\	4b^\	.
8r	8r	.
8E 8EE\	16bLL 16g#X 16e 16d/	.
.	16bJJ 16g# 16e 16d/	.
!!LO:LB:g=original
=49	=49	=49
4AA 4AAA/	4a 4e 4c#/	.
4r	8r	.
!	!LO:TX:b:i:t=meno presto	!
.	16a'/LL	.
.	16a'/JJ	.
8AL 8AA\	8ggL 8cc# 8a\	.
8C# 8CC#\	8ee 8a\	.
8D 8DD\	8ff# 8a\	.
8F#J 8FF#\	8ddJ 8a\	.
=50	=50	=50
8AL 8AA\	8aaL 8cc# 8a\	.
8C# 8CC#\	8aa 8ee 8a\	.
8D 8DD\	8ff# 8a\	.
8F#J 8FF#\	8ddJ 8a\	.
8AL 8AA\	8aaL 8cc# 8a\	.
8C# 8CC#\	8aa 8ee 8a\	.
8D 8DD\	8ff# 8a\	.
8F#J 8FF#\	8ddJ 8a\	f
=51	=51	=51
8A 8AA`\	8aa 8ee 8cc# 8a`\	.
4A^^\	4aa 4a^^\	.
4A#X^^\	4aa#X 4a#X^^\	.
8B\	8bb 8b\	.
(16B\LL	(16bbLL 16b\	.
!	!LO:TX:b:i:t=piu-lento:dur=5s:ext=s:problem:text with extention lines	!
16An\	16aan 16an\	.
16G\	16gg 16g\	.
16F#\JJ	16ff#JJ 16f#\	.
=52	=52	=52
*	*^	*
16A\LL	16aaLL 16a\	2ryy	.
16G\	16gg 16g\	.	.
16F#\	16ff# 16f#\	.	.
16E\JJ	16eeJJ 16e\	.	.
16D\LL	16ddLL 16d\	.	.
16C#\	16cc# 16c#\	.	.
16A\	16aa 16a\	.	.
16G\JJ)	16ggJJ 16g\)	.	.
(16F#\LL	8ryy	(16ff#\LL	.
!	!LO:TX:b:t=rall.	!	!
16A\J)	.	16aa\J	.
8AJ 8F# 8D 8AA\	16dd/LL	8a\J	.
.	16ff#/JJ)	.	.
8r	8ryy	(16ee\LL	.
.	.	16gg\J	.
8A 8AA;\	16cc#;/LL	8aJ 8g\	.
.	16ee/JJ)	.	.
!LO:TX:b:i:t=NB. Po skończeniu Introdukcyi, grać należy zaraz Marsza (na stro 10) do znaku [segno] następnie powtórzyć cały 	!	!	!
!LO:TX:b:i:t=wstęp od takiego znaku [segno] (na stro 7) bez żadnej przerwy i iśc dalej.	!	!	!
*	*v	*v	*
==	==	==
*-	*-	*-
!!!system-decoration: {(s1,s2)}
!!!RDF**kern: > = above
!!!RDF**kern: < = below
!!!RDF**dynam: > = "dim.", fontstyle= "italic"
!!!ENC: Berenika Jozajtis
!!!END: 2022-11-25
!!!ENC: Katarzyna Serwa
!!!END: 2022-12-05
!!!YEC: Copyright 2022 Narodowy Instytut Fryderyka Chopina (https://polishscores.org)
!!!YEM: License CC-BY-4.0 (https://creativecommons.org/licenses/by/4.0)
